packages/design-assets/icons/16px/Send.svg

<?xml version="1.0" encoding="UTF-8"?>
<svg width="16px" height="16px" viewBox="0 0 16 16" version="1.1" xmlns="http://www.w3.org/2000/svg" xmlns:xlink="http://www.w3.org/1999/xlink">
    <!-- Generator: Sketch 54.1 (76490) - https://sketchapp.com -->
    <title>Icons/16px/Send</title>
    <desc>Created with Sketch.</desc>
    <g id="Icons/16px/Send" stroke="none" stroke-width="1" fill="none" fill-rule="evenodd">
        <path d="M7.81128337,12.9555981 L5.50946779,15.6412947 C4.9050714,16.3464882 3.74956258,15.9186292 3.75018206,14.9898706 L3.75379426,9.57429205 C3.72082332,9.38437621 3.74270714,9.18525353 3.82314037,9.00278418 C3.89674186,8.8154288 4.0262993,8.65180555 4.19850626,8.53678387 L8.41350626,5.72147137 C8.87276761,5.41471829 9.49374501,5.53835068 9.80049809,5.99761203 C10.1072512,6.45687339 9.98361878,7.07785078 9.52435743,7.38460386 L6.44520115,9.44125562 L8.02562548,10.6264612 C8.13590952,10.6664419 8.24097536,10.7266474 8.33531397,10.8075017 C8.3949363,10.8586019 8.44706376,10.9151985 8.49158929,10.9759009 L11.534996,13.258239 L13.6658118,2.60517265 L3.01204092,6.86627598 L3.46318096,7.20448619 C3.9033145,7.53444507 3.99260329,8.15869441 3.66261306,8.59878612 C3.33262282,9.03887783 2.70831415,9.12815814 2.26818061,8.79819927 L0.398726887,7.39670908 C-0.223050287,6.9305758 -0.0952406306,5.96372578 0.626304886,5.675135 L14.6332009,0.0729090649 C15.3676141,-0.220828302 16.1349518,0.41739564 15.9798265,1.19294873 L13.1784473,15.1985136 C13.0347282,15.9170408 12.1903775,16.2396066 11.6041163,15.7999525 L7.81128337,12.9555981 Z M6.20782942,11.7531219 L5.75256914,11.4117092 L5.75198667,12.284987 L6.20782942,11.7531219 L6.20782942,11.7531219 Z" id="i-16-send" fill="#818F99"></path>
    </g>
</svg>

<svg width="16" height="16" xmlns="http://www.w3.org/2000/svg"><path d="M7.811 12.956L5.51 15.64c-.604.705-1.76.278-1.759-.651l.004-5.416a.995.995 0 0 1 .07-.571 1 1 0 0 1 .375-.466L8.414 5.72a1 1 0 0 1 1.11 1.664L6.445 9.44l1.58 1.185a.998.998 0 0 1 .467.35l3.043 2.282 2.13-10.653L3.013 6.866l.451.338a.996.996 0 1 1-1.195 1.594L.398 7.397a.996.996 0 0 1 .228-1.722L14.633.073a.996.996 0 0 1 1.347 1.12l-2.802 14.006a.996.996 0 0 1-1.574.601l-3.793-2.844zm-1.603-1.203l-.455-.341-.001.873.456-.532z" fill="#818F99" fill-rule="evenodd"/></svg>
